X:205
T: DAS IST KURZ UND DAS IST LANG
N: K2610
O: Europa, Mitteleuropa, Deutschland, Rheinland
R: Kinder - Lied, Pfaender - Spiel
M: 2/4
L: 1/8
K: F
 | FGAA | GGFz
ABcc | BBAz
ccdz | BBc2
A3c | cBB2
G3d | dcc2
A3c | cBB2
G2G2 | F2z2

